packages/crayons-core/src/components/icon/icon-assets/icons/filter-clear.svg

<?xml version="1.0" encoding="UTF-8"?>
<svg width="14px" height="14px" viewBox="0 0 14 14" version="1.1" xmlns="http://www.w3.org/2000/svg" xmlns:xlink="http://www.w3.org/1999/xlink">
    <!-- Generator: Sketch 52.6 (67491) - http://www.bohemiancoding.com/sketch -->
    <title>icon/filter-clear</title>
    <desc>Created with Sketch.</desc>
    <g id="Icons-✅" stroke="none" stroke-width="1" fill="none" fill-rule="evenodd">
        <g id="Icons" transform="translate(-737.000000, -1993.000000)" fill="currentColor">
            <g id="icon/filter-clear" transform="translate(737.000000, 1993.000000)">
                <g id="filter-clear">
                    <path d="M12.68,4.58 C12.8137973,4.70993276 12.8892974,4.88849466 12.8892974,5.075 C12.8892974,5.26150534 12.8137973,5.44006724 12.68,5.57 L11.25,7 L12.68,8.43 C12.8169644,8.56025306 12.8945003,8.74098915 12.8945003,8.93 C12.8945003,9.11901085 12.8169644,9.29974694 12.68,9.43 C12.5527456,9.56476426 12.3753496,9.64079113 12.19,9.64 C12.0018867,9.64002687 11.8216793,9.56433974 11.69,9.43 L10.26,8 L8.83,9.43 C8.69832072,9.56433974 8.51811326,9.64002687 8.33,9.64 C8.14465043,9.64079113 7.9672544,9.56476426 7.84,9.43 C7.70303562,9.29974694 7.62549974,9.11901085 7.62549974,8.93 C7.62549974,8.74098915 7.70303562,8.56025306 7.84,8.43 L9.27,7 L7.83,5.58 C7.55385763,5.30385762 7.55385764,4.85614238 7.83000001,4.58000001 C8.10614238,4.30385764 8.55385762,4.30385763 8.83,4.58 L10.26,6 L11.68,4.58 C11.8102531,4.44303562 11.9909892,4.36549974 12.18,4.36549974 C12.3690108,4.36549974 12.5497469,4.44303562 12.68,4.58 Z M12.43,0.25 C13.182722,0.255494467 13.7900201,0.867257994 13.79,1.62 L13.79,3.88 C13.7842496,4.16662844 13.6860376,4.44372653 13.51,4.67 C13.4464225,4.44776874 13.3336346,4.24269981 13.18,4.07 C12.9653208,3.86947774 12.6918722,3.74327069 12.4,3.71 L12.4,1.65 L1.7,1.65 L1.7,3.88 L5.94,8.08 C6.20426248,8.34474675 6.34877852,8.70603685 6.34,9.08 L6.34,12 L7.77,11.45 L7.77,10.17 C7.94873396,10.2529643 8.14296849,10.2972634 8.34,10.3 C8.6390188,10.2935949 8.92744507,10.188073 9.16,10 L9.16,12.03 C9.15698272,12.3206679 8.97947721,12.5810093 8.71,12.69 L5.89,13.77 C5.67581525,13.8441334 5.43934624,13.8145747 5.25,13.69 C5.0579594,13.5590632 4.94216764,13.3424206 4.94,13.11 L4.94,9.11 L0.7,4.88 C0.433715495,4.61658984 0.288835467,4.25438977 0.3,3.88 L0.3,1.62 C0.3,0.863369893 0.913369893,0.25 1.67,0.25 L12.43,0.25 Z" id="Combined-Shape"></path>
                </g>
            </g>
        </g>
    </g>
</svg>

<svg viewBox="0 0 14 14"><path d="M12.68 4.58a.69.69 0 0 1 0 .99L11.25 7l1.43 1.43a.69.69 0 0 1 0 1 .67.67 0 0 1-.49.21.7.7 0 0 1-.5-.21L10.26 8 8.83 9.43a.7.7 0 0 1-.5.21.67.67 0 0 1-.49-.21.69.69 0 0 1 0-1L9.27 7 7.83 5.58a.707.707 0 0 1 1-1L10.26 6l1.42-1.42a.69.69 0 0 1 1 0zM12.43.25a1.37 1.37 0 0 1 1.36 1.37v2.26a1.33 1.33 0 0 1-.28.79 1.54 1.54 0 0 0-.33-.6 1.37 1.37 0 0 0-.78-.36V1.65H1.7v2.23l4.24 4.2c.264.265.409.626.4 1V12l1.43-.55v-1.28a1.4 1.4 0 0 0 .57.13 1.35 1.35 0 0 0 .82-.3v2.03a.72.72 0 0 1-.45.66l-2.82 1.08a.73.73 0 0 1-.64-.08.71.71 0 0 1-.31-.58v-4L.7 4.88a1.35 1.35 0 0 1-.4-1V1.62C.3.863.913.25 1.67.25h10.76z" fill="currentColor" fill-rule="evenodd"/></svg>
